source/svgs/bowtie/uEA19-test-fill.svg

<svg xmlns="http://www.w3.org/2000/svg" viewBox="0 0 448 448" enable-background="new 0 0 448 448"><path d="M424.7 322.8l-136.7-199.7v-91.1h32v-32h-192v32h32v91.1l-136.7 199.7c-16.8 24.6-18.6 56.2-4.7 82.5 13.9 26.3 41 42.7 70.8 42.7h269.3c29.8 0 56.9-16.3 70.8-42.7 13.8-26.3 12-57.9-4.8-82.5zm-232.7-189.9v-100.9h64v100.9l84.2 123.1h-232.4l84.2-123.1z"/></svg>

<svg xmlns="http://www.w3.org/2000/svg" viewBox="0 0 448 448"><path d="M424.7 322.8L288 123.1V32h32V0H128v32h32v91.1L23.3 322.8C6.5 347.4 4.7 379 18.6 405.3c13.9 26.3 41 42.7 70.8 42.7h269.3c29.8 0 56.9-16.3 70.8-42.7 13.8-26.3 12-57.9-4.8-82.5zM192 132.9V32h64v100.9L340.2 256H107.8L192 132.9z"/></svg>
